X:1
T:Lead Us On
T:Christopher Henry Hudson Booth
T:Lead Us On
T:Public Domain
T:Public Domain
T:Public Domain
C:Christopher Henry Hudson Booth
Z:Public Domain
%%score ( 1 2 ) 3 ( 4 5 )
L:1/8
M:4/4
K:D
V:1 treble 
V:2 treble 
V:3 treble 
V:4 bass 
V:5 bass 
V:1
 F2 F2 FEDE | F4 A2 z2 | B3 c edcB | (A6 G2) | F3 F FEDE | F4 A2 z2 | ^G3 A cBAG | A6 || %8
w: 1.~Step by step, O lov- ing|Sav- ior,|In Thine own ap- point- ed|way, *|In the path which Thou hast|chos- en,|Lead us on, from day to|day.|
w: 2.~Lead us on, though storm- y|bil- lows|Wild and dark be- fore us|rise; *|Let Thy pre- cious bow of|prom- ise|Shine re- splend- ent from the|skies.|
w: 3.~Lead us on, our souls de-|fend- ing,|Till the lat- est storm is|past, *|And we hear our loved ones|sing- ing,|“Wel- come, wel- come home at|last!”|
"^Refrain" A>A | z2 (G z/ G/) (ed)(cB) | (z2 F>F) ([DF]2 F2) | [EG]3 [FA] [Ac][GB][FA][EG] | %12
w: ||||
w: ||||
w: Lead us|on, * O * lead *|* * ev- *|* Till we all Thy face|
 [DF]6 A>A | (z G) (c>G) ([Ge][Gd])([Gc][GB]) | [FA]4 [Fd]2 [DF][DF] | (A2 G)[B,F] [CE]3 D | %16
w: ||||
w: ||||
w: shall see: For|* our * hope * is *|* Thy mer- cy,|We * are trust- ing|
 D6 z2 |] %17
w: |
w: |
w: Thee.|
V:2
 x8 | x8 | x8 | x8 | x8 | x8 | x8 | x6 || x2 | (B3 c G2) x2 | A4 x4 | x8 | x8 | B3 x5 | x8 | %15
w: |||||||||||||||
w: |||||||||||||||
w: |||||||||us * *|er,|||in||
 B,3 x2 D x2 | D6 x2 |] %17
w: ||
w: ||
w: on- ly||
V:3
 [A,D]2 z2 [A,D]2 z2 | [A,D]4 [A,DF]2 z2 | [DG]2 z2 [DGB]2 z2 | ([A,D]4 [A,C]2 [A,C]2) | %4
 [A,D]2 z2 [A,D]2 z2 | [A,D]4 [A,D]2 z2 | [DE]2 z2 [DE]2 z2 | [CE]6 || x2 | x8 | x8 | x8 | x8 | %13
 x8 | x8 | x8 | x8 |] %17
V:4
 [D,,D,]2 z2 [D,,D,]2 z2 | [D,,D,]2 A,,2 F,,2 D,,2 | G,,2 z2 [G,,E,]2 z2 | %3
w: ~ ~|~ ~ ~ ~|~ ~|
 ([F,,F,]2 [=F,,=F,]2 [E,,E,]2 A,,2) | [D,,D,]2 z2 [D,,D,]2 z2 | ([D,,D,]2 A,,2) (F,,2 D,,2) | %6
w: ~ * * *|~ ~|~ * ~ *|
 E,,2 z2 [E,,E,]2 z2 | (A,,2 [E,,E,]2 [A,,,A,,]2) || z2 | z2 [G,D]>[G,D] [G,D]2 z2 | %10
w: ~ ~|~ * *||Lead us on,|
 z2 [D,A,]>[D,A,] [D,F,]2 [D,A,]2 | [A,,A,]3 [A,,A,] [A,,A,]2 [A,,A,]2 | %12
w: lead us ev- er,|Till we all Thy|
 [D,A,]2 A,2 ([F,A,]2 [D,F,]2) | z2 G,>G, [G,B,][G,B,][G,D][G,D] | %14
w: face shall see; *|our hope is in Thy mer-|
 (D2 A,2) [D,A,]2 [B,,B,][B,,B,] | [E,G,]3 [E,G,] [A,,G,]3 [A,,G,] | (z2 A,,2 E,,2) z2 |] %17
w: |||
V:5
 x8 | x8 | x8 | x8 | x8 | x8 | x8 | x6 || x2 | x8 | x8 | x8 | x2 A,2 x4 | x2 G,>G, x4 | D,4 x4 | %15
w: ||||||||||||For|cy, *||
 x8 | [D,F,]6 x2 |] %17
w: ||

